ui_kit/lib/assets/icons/tile_mute.svg

<svg width="40" height="40" viewBox="0 0 40 40" fill="none" xmlns="http://www.w3.org/2000/svg">
<rect width="40" height="40" rx="20" fill="black" fill-opacity="0.9"/>
<path fill-rule="evenodd" clip-rule="evenodd" d="M10.2438 10.2438C10.5689 9.91873 11.094 9.91873 11.419 10.2438L18.0202 16.8449C18.0463 16.8655 18.0714 16.8878 18.0955 16.9119L22.363 21.1795C22.3868 21.2033 22.4089 21.2282 22.4292 21.254L24.5715 23.3963C24.6342 23.4318 24.6932 23.4763 24.7468 23.5299C24.8012 23.5844 24.8468 23.6444 24.8834 23.7081L29.7562 28.581C30.0813 28.906 30.0813 29.4311 29.7562 29.7562C29.4311 30.0813 28.906 30.0813 28.581 29.7562L24.1084 25.2837C23.2961 25.9209 22.3459 26.3637 21.3294 26.5722C21.1662 26.6057 21.0022 26.633 20.8377 26.6542V28.3308H23.3382C23.7966 28.3308 24.1717 28.7059 24.1717 29.1643C24.1717 29.6228 23.7966 29.9978 23.3382 29.9978H20.018C20.0134 29.9979 20.0088 29.998 20.0042 29.998C19.9996 29.998 19.9949 29.9979 19.9903 29.9978H16.6701C16.2117 29.9978 15.8366 29.6311 15.8366 29.1643C15.8366 28.7059 16.2117 28.3308 16.6701 28.3308H19.1707V26.6587C18.582 26.5862 18.0018 26.4349 17.4453 26.2055C16.22 25.6971 15.1698 24.8385 14.4363 23.73C13.7112 22.6214 13.3278 21.3211 13.3361 19.9959V18.3289C13.3361 17.8704 13.7112 17.4953 14.1696 17.4953C14.628 17.4953 15.0031 17.8704 15.0031 18.3289V20.0042C14.9948 21.0044 15.2865 21.9796 15.8366 22.8048C16.3867 23.63 17.1786 24.2801 18.0954 24.6635C18.628 24.8842 19.1881 25.0082 19.7536 25.0356C19.8328 25.0105 19.917 24.9969 20.0042 24.9969C20.0904 24.9969 20.1737 25.0102 20.252 25.0348C20.5037 25.0218 20.7551 24.9897 21.0044 24.9386C21.6991 24.7961 22.3515 24.5097 22.9224 24.0977L21.6957 22.871C21.3757 23.0587 21.0245 23.192 20.6543 23.2632C20.4376 23.3132 20.2209 23.3299 20.0042 23.3299C19.5708 23.3299 19.1373 23.2466 18.7289 23.0715C18.1205 22.8215 17.6037 22.3964 17.2369 21.8463C16.8619 21.3045 16.6702 20.6627 16.6702 20.0042V17.8454L10.2438 11.419C9.91873 11.094 9.91873 10.5689 10.2438 10.2438ZM20.4307 21.6059L18.3456 19.5208L18.3372 19.5124V19.9959C18.3372 20.3293 18.4372 20.646 18.6206 20.9211C18.8039 21.1961 19.0623 21.4045 19.3707 21.5379C19.6708 21.6629 20.0042 21.6962 20.3293 21.6296L20.3293 21.6295C20.3607 21.6217 20.3922 21.6138 20.4307 21.6059ZM22.5047 18.6123C22.0463 18.6123 21.6712 18.2372 21.6712 17.7788V13.3278C21.6712 12.9111 21.5212 12.5193 21.2378 12.2109C20.9627 11.9025 20.5793 11.7108 20.1709 11.6691C19.7625 11.6275 19.3457 11.7358 19.0123 11.9859C18.6789 12.2276 18.4539 12.5943 18.3705 12.9944C18.2788 13.4445 17.8371 13.7362 17.387 13.6446C16.9369 13.5529 16.6451 13.1194 16.7368 12.6694C16.9035 11.8609 17.362 11.144 18.0288 10.6523C18.6956 10.1605 19.5207 9.93545 20.3459 10.0188C21.1711 10.1022 21.9296 10.4856 22.488 11.1024C23.0298 11.7108 23.3382 12.5027 23.3382 13.3362V17.7871C23.3382 18.2455 22.9631 18.6123 22.5047 18.6123ZM26.6722 18.3289C26.6722 17.8704 26.2971 17.4953 25.8387 17.4953C25.3803 17.4953 25.0052 17.8704 25.0052 18.3289V19.9959C25.0052 20.2959 24.9802 20.5877 24.9219 20.8794C24.8385 21.3295 25.1469 21.7629 25.597 21.8463C26.0471 21.9296 26.4805 21.6212 26.5639 21.1711C26.6389 20.7794 26.6722 20.3876 26.6722 19.9959V18.3289Z" fill="white"/>
</svg>

<svg xmlns="http://www.w3.org/2000/svg" width="40" height="40" fill="none" viewBox="0 0 40 40"><rect width="40" height="40" fill="#000" fill-opacity=".9" rx="20"/><path fill="#fff" fill-rule="evenodd" d="M10.244 10.244a.83.83 0 0 1 1.175 0l6.601 6.6a.86.86 0 0 1 .076.068l4.267 4.268a.84.84 0 0 1 .066.074l2.143 2.142a.817.817 0 0 1 .311.312l4.873 4.873a.83.83 0 1 1-1.175 1.175l-4.473-4.472a6.676 6.676 0 0 1-3.27 1.37v1.677h2.5c.459 0 .834.375.834.833a.836.836 0 0 1-.834.834h-3.32a.635.635 0 0 1-.028 0h-3.32a.83.83 0 0 1-.833-.834c0-.458.375-.833.833-.833h2.5v-1.672a6.663 6.663 0 0 1-4.734-2.929 6.749 6.749 0 0 1-1.1-3.734v-1.667c0-.459.375-.834.834-.834.458 0 .833.375.833.834v1.675c-.008 1 .284 1.976.834 2.8a5.076 5.076 0 0 0 2.258 1.86c.533.22 1.093.344 1.659.372a.828.828 0 0 1 .498-.001 4.986 4.986 0 0 0 2.67-.937l-1.226-1.227c-.32.188-.672.321-1.042.392-.216.05-.433.067-.65.067a3.23 3.23 0 0 1-1.275-.258 3.297 3.297 0 0 1-1.492-1.226 3.226 3.226 0 0 1-.567-1.842v-2.159l-6.426-6.426a.83.83 0 0 1 0-1.175ZM20.43 21.606l-2.085-2.085-.009-.009v.484c0 .333.1.65.284.925a1.7 1.7 0 0 0 .75.617c.3.125.633.158.958.092.032-.008.063-.016.102-.024Zm2.074-2.994a.836.836 0 0 1-.834-.833v-4.451c0-.417-.15-.809-.433-1.117a1.657 1.657 0 0 0-1.067-.542 1.665 1.665 0 0 0-1.8 1.325.835.835 0 0 1-.984.65.827.827 0 0 1-.65-.975 3.342 3.342 0 0 1 5.751-1.567c.542.609.85 1.4.85 2.234v4.451a.829.829 0 0 1-.833.825Zm4.167-.283a.836.836 0 0 0-.833-.834.836.836 0 0 0-.834.834v1.667c0 .3-.025.592-.083.883a.837.837 0 0 0 .675.967.838.838 0 0 0 .967-.675 6.23 6.23 0 0 0 .108-1.175v-1.667Z" clip-rule="evenodd"/></svg>
